X:1
T:Title
%%score { ( 1 3 ) | ( 2 4 ) }
L:1/8
Q:1/4=110
M:4/4
K:Bb
V:1 treble nm="Grand Piano"
V:3 treble 
V:2 bass 
V:4 bass 
V:1
 [DF]2 [DB]2 [DB]2 D2 | E2 G2 G4 | FAAB ccBc | d2 [DB]>[EG] [DF]4 | [DF]2 [DB]2 [DB]2 D2 | %5
w: E.~S.~Lorenz * * *|||||
 E2 G2 G4 | FAAB ccdc | B6 z2 | DF[DF][DF] [DF]2 [DB]2 | [EG]2 [EG]2 z4 | FAAB c2 d2 | %11
w: ||||||
 [DB]2 [Fd]2 [Fd]4 | [Fd][Fd][Ge][Fd] z B, B,2 | [GB][GB][Gc][GB] z B, B,2 | FAAB ccdc | %15
w: ||||
 B2- [EB-]>[EB-] [DB]2 z2 |] %16
w: |
V:2
 [B,,B,]2 [B,,F,]2 [B,,F,]2 [B,,_A,B,]2 | [E,G,B,]2 [E,B,E]2 [E,B,E]4 | %2
 [F,A,C][F,CF][F,CF][F,DF] [F,EF][F,A,F][F,B,D][K:treble][F,A,F] | %3
 [B,F]2[K:bass] [B,,B,]>[B,,B,] [B,,B,]4 | [B,,B,]2 [B,,F,]2 [B,,F,]2 [B,,_A,B,]2 | %5
 [E,G,B,]2 [E,B,E]2 [E,B,E]4 | [F,A,C][F,CF][F,CF][F,DF] [F,EF][F,A,F][F,A,F][F,E] | %7
 [B,,B,]2 [B,,G,]>[B,,G,] [B,,F,]2 z2 | .B,2 z2 z4 | [E,B,]E,E,E, [E,B,E]4 | %10
 [F,A,]-[F,A,F][K:treble]FF[K:bass] [F,A,E]2 [F,F]2 | [B,,F,][B,,B,][B,,B,][B,,B,] [B,,B,]4 | %12
 [B,,B,]2 [B,,B,]2 [B,,B,]B,, B,,2 | [E,B,]2 [E,E]2 [E,B,]E, E,2 | %14
 [F,A,C][F,CF][F,CF][F,DF] [F,EF][F,A,F][F,A,F][F,E] | [B,,F,]2 [B,,G,]>[B,,G,] [B,,F,]2 z2 |] %16
V:3
 x8 | x8 | x8 | x8 | x8 | x8 | x8 | D2 E>E D2 z2 | x8 | z B,B,B, G4 | x8 | x8 | z4 [DB]4 | %13
 z4 [EG]4 | x8 | D2 z2 z4 |] %16
V:4
 x8 | x8 | x7[K:treble] x | x2[K:bass] x6 | x8 | x8 | x8 | x8 | %8
 [B,,F,]-[B,,F,D] [B,,B,]2 [B,,B,]2 [B,,B,]2 | x8 | .C2[K:treble] [F,C]2[K:bass] z4 | x8 | x8 | %13
 x8 | x8 | x8 |] %16

